www/assets/icons/edgesensor_high.svg

<svg xmlns="http://www.w3.org/2000/svg" width="24" height="24" viewBox="0 0 24 24" fill='currentColor'><path d="M3 7h2v7H3zm-3 3h2v7H0zm22-3h2v7h-2zm-3 3h2v7h-2zm-3-7.99L8 2c-1.1 0-2 .9-2 2v16c0 1.1.9 2 2 2h8c1.1 0 2-.9 2-2V4c0-1.1-.9-1.99-2-1.99M16 17H8V7h8z"/></svg>

<svg width="24" height="24" viewBox="0 0 24 24" xmlns="http://www.w3.org/2000/svg" fill='currentColor'><path d="M3 7H5V14H3V7ZM0 10H2V17H0V10ZM22 7H24V14H22V7ZM19 10H21V17H19V10ZM16 2.01L8 2C6.9 2 6 2.9 6 4V20C6 21.1 6.9 22 8 22H16C17.1 22 18 21.1 18 20V4C18 2.9 17.1 2.01 16 2.01ZM16 17H8V7H16V17Z"/></svg>
